!!!SOCIAL_FUNCTION:	songs of the grass dance
!!!PDT:	1918

Specific Region: Dakotas, Minnesota, Montana, Nebraska
!!!REG: Dakotas and Montana
!!!LING_GROUP: Siouan
!!!LANG: Tone
!!!OTL@ENG: Song of the Grass Dance (b)
!!!ONM: No. 197
**kern
*Imale
*clefF4
*k[f#]
*M2/4
*MM100
-2147483648G
4g
4g
=2
4g
12g
12e
12e
=3||
*M3/4
8d
8d
12d
12B
12B
8e
8e
=4||
*M2/4
8d
8d
16e
16d
16B
16A
=5
8G
8G
12G
12E
12E
=6||
*M3/4
8G
8A
16G
8.G
8G
8G
=7||
*M2/4
2G
=8||
*M3/4
2G
8e
8e
=9
8d
8d
12d
12B
12B
8e
8e
=10||
*M2/4
8d
8d
16e
16d
16B
16A
=11
8G
8G
12G
12E
12E
=12||
*M3/4
8G
8A
16G
8.G
8G
8G
=13||
*M2/4
2G
=14
2G
==
*-
!!!CNT: Native American -- Sioux
!!!MRD: 1911/07//-1914///
!!!OCL: Frances Densmore
!!!YOR1: Teton Sioux Music, Bulletin 61,
!!!YOR2: Bureau of American Ethnology, Smithsonian Institution
!!!PPR: Government Printing Office
!!!PPP: Washington, D.C.
!!!PDT: 1918///
!!!ENC: Craig Stuart Sapp
!!!END: 2002/03/25/
!!!EEV: 2002/03/31/
!!!AGN: Dance Song/Song of the Grass Dance
!!!MPN@@SIO: Hanghe'-pikte
!!!MPN@ENG: Kills-at-Night
!!!TXO: Teton Sioux
!!!MLC: Standing Rock Reservation, South Dakota, United States of America
!!!ARL: 45.9/-100.7#
!!!catalog: Catalogue No. 594
!!!PPG: 475
!!!EFL: 202/245
!!!VTS: 1860736483
